X: 35041
T: Rolling Down The Mountain
R: jig
M: 6/8
K: Aminor
"G" GAB|:"Am"cAG {G}FEC|"Dm"D2C {E}DCD|"Am"cAG {G}FEG|"G"D3DEG|
"Am"cAG {G}FEC|"G"D2 E"Em" E3/2G3/2|"Am"A>GA {B}ABc|1 "C"e3 "G"GAB:|2 "C"e3 "G"d2B||
|:"Am"cee Aee|"G"dcB "Am"{d}cBA|cee Aee|"G"{e}dcd "Em" B3|
"Am"(ec)(e A)(ec)|eag "Em"e2(f/g/|"Am" a)ge {a}ged|1 "G" {e}}dcd "C"e2d:|2 "C"e3 "G"GAB||

